packages/kaspersky-hexa-ui-icons/src/iconsSVGs/24/ReportsActiv.svg

<svg width="24" height="24" viewBox="0 0 24 24" fill="none" xmlns="http://www.w3.org/2000/svg">
<path d="M20.971 6.67027C22.4457 6.67027 23.6412 5.47477 23.6412 4.00005C23.6412 2.52533 22.4457 1.32983 20.971 1.32983C19.4963 1.32983 18.3008 2.52533 18.3008 4.00005C18.3008 4.81036 18.6617 5.53637 19.2316 6.02608L16.1742 12.1206C16.0019 12.0857 15.8235 12.0673 15.6409 12.0673C15.209 12.0673 14.8011 12.1698 14.4402 12.3519L12.6159 10.5276C12.7971 10.1674 12.899 9.76052 12.899 9.32982C12.899 7.8551 11.7035 6.65961 10.2288 6.65961C8.75409 6.65961 7.55859 7.8551 7.55859 9.32982C7.55859 10.1207 7.90239 10.8312 8.44867 11.3201L5.41533 17.3666C5.27082 17.3424 5.12238 17.3298 4.971 17.3298C3.49628 17.3298 2.30078 18.5253 2.30078 20.0001C2.30078 21.4748 3.49628 22.6703 4.971 22.6703C6.44572 22.6703 7.64122 21.4748 7.64122 20.0001C7.64122 19.2158 7.30312 18.5105 6.76473 18.022L9.80271 11.9662C9.94146 11.9885 10.0838 12 10.2288 12C10.7272 12 11.1936 11.8635 11.5928 11.6258L13.3432 13.3763C13.1066 13.7749 12.9707 14.2404 12.9707 14.7375C12.9707 16.2123 14.1662 17.4078 15.6409 17.4078C17.1156 17.4078 18.3111 16.2123 18.3111 14.7375C18.3111 13.9859 18.0006 13.3068 17.5007 12.8215L20.5995 6.64463C20.7209 6.66153 20.8449 6.67027 20.971 6.67027Z" fill="black"/>
</svg>

<svg xmlns="http://www.w3.org/2000/svg" width="24" height="24" fill="none" viewBox="0 0 24 24"><path fill="#000" d="M20.971 6.6703c1.4747 0 2.6702-1.1955 2.6702-2.6703 0-1.4747-1.1955-2.6702-2.6702-2.6702S18.3008 2.5253 18.3008 4c0 .8104.3609 1.5364.9308 2.026l-3.0574 6.0946a2.7 2.7 0 0 0-.5333-.0533c-.4319 0-.8398.1025-1.2007.2846l-1.8243-1.8243a2.66 2.66 0 0 0 .2831-1.1978c0-1.4747-1.1955-2.6702-2.6702-2.6702S7.5586 7.8551 7.5586 9.3298c0 .7909.3438 1.5014.89 1.9903l-3.0333 6.0465a2.7 2.7 0 0 0-.4443-.0368c-1.4747 0-2.6702 1.1955-2.6702 2.6703 0 1.4747 1.1955 2.6702 2.6702 2.6702s2.6702-1.1955 2.6702-2.6702c0-.7843-.338-1.4896-.8765-1.9781l3.038-6.0558a2.7 2.7 0 0 0 .4261.0338c.4984 0 .9648-.1365 1.364-.3742l1.7504 1.7505a2.66 2.66 0 0 0-.3725 1.3612c0 1.4748 1.1955 2.6703 2.6702 2.6703s2.6702-1.1955 2.6702-2.6703c0-.7516-.3105-1.4307-.8104-1.916l3.0988-6.1769a2.7 2.7 0 0 0 .3715.0257"/></svg>
